resources/haticons/SVG/contact_mail.svg

<!-- Generated by IcoMoon.io -->
<svg version="1.1" xmlns="http://www.w3.org/2000/svg" width="24" height="24" viewBox="0 0 24 24">
<title>contact_mail</title>
<path d="M21.984 12v-6h-7.969v6h7.969zM14.016 18v-0.984q0-1.359-2.063-2.227t-3.938-0.867-3.938 0.867-2.063 2.227v0.984h12zM8.016 6q-1.219 0-2.109 0.891t-0.891 2.109 0.891 2.109 2.109 0.891 2.109-0.891 0.891-2.109-0.891-2.109-2.109-0.891zM21.984 3q0.797 0 1.406 0.609t0.609 1.406v13.969q0 0.797-0.609 1.406t-1.406 0.609h-19.969q-0.797 0-1.406-0.609t-0.609-1.406v-13.969q0-0.797 0.609-1.406t1.406-0.609h19.969zM21 8.016l-3 1.969-3-1.969v-1.031l3 2.016 3-2.016v1.031z"></path>
</svg>

<svg xmlns="http://www.w3.org/2000/svg" width="24" height="24"><path d="M21.984 12V6h-7.969v6h7.969zm-7.968 6v-.984q0-1.359-2.063-2.227t-3.938-.867-3.938.867-2.063 2.227V18h12zm-6-12q-1.219 0-2.109.891T5.016 9t.891 2.109T8.016 12t2.109-.891T11.016 9t-.891-2.109T8.016 6zm13.968-3q.797 0 1.406.609t.609 1.406v13.969q0 .797-.609 1.406t-1.406.609H2.015q-.797 0-1.406-.609T0 18.984V5.015q0-.797.609-1.406T2.015 3h19.969zM21 8.016l-3 1.969-3-1.969V6.985l3 2.016 3-2.016v1.031z"/></svg>
